svgs/sharp-regular/list-dropdown.svg

<svg xmlns="http://www.w3.org/2000/svg" viewBox="0 0 512 512"><!--! Font Awesome Pro 6.6.0 by @fontawesome - https://fontawesome.com License - https://fontawesome.com/license (Commercial License) Copyright 2024 Fonticons, Inc. --><path d="M48 192l0 240 416 0 0-240L48 192zM0 32l48 0 416 0 48 0 0 48 0 352 0 48-48 0L48 480 0 480l0-48L0 80 0 32zM352 96l48 48 48-48-96 0zM128 232l256 0 24 0 0 48-24 0-256 0-24 0 0-48 24 0zm0 96l256 0 24 0 0 48-24 0-256 0-24 0 0-48 24 0z"/></svg>

<svg xmlns="http://www.w3.org/2000/svg" viewBox="0 0 512 512"><!--! Font Awesome Pro 6.5.2 by @fontawesome - https://fontawesome.com License - https://fontawesome.com/license (Commercial License) Copyright 2024 Fonticons, Inc. --><path d="M48 192V432H464V192H48zM0 32H48 464h48V80 432v48H464 48 0V432 80 32zM352 96l48 48 48-48H352zM128 232H384h24v48H384 128 104V232h24zm0 96H384h24v48H384 128 104V328h24z"/></svg>
